X:1
T:Title
%%score { 1 | 2 }
L:1/8
M:4/4
K:Ab
V:1 treble nm="Grand Piano"
V:2 bass 
V:1
 z4 z2[Q:1/4=100] DE | FF=EE F2 [FA][FA] | BB=AA B2 [Ac][_GB] | [_GB][FA][FA]F FFEF | [CE]6 DE | %5
[M:3/4] FF =EE F2 |[M:1/4] [FA][FA] |[M:4/4] BB=AA B2 BB | [GB][GB][GB][GB] [Gd][Gd][Gc][GB] | %9
 A6 z2 | [Fd]2 [FB]2 c2 e2 | c2 B2 [_GB]2 [FA]2 | A2 A2 A c2 A | [=Dc]2 [_DB]2 [CA]4 | %14
 [Fd]2 [FB]2 c2 e2 | c2 B2 [FB]2 [FA]2 | [Fd]2 [Fd]2 d d2 B |[M:9/8] A3 e3 [Fd]3 |] %18
V:2
 z4 z2 [D,F,][D,_G,D] | [D,A,D][D,A,D][D,G,D][D,G,D] [D,A,D]2 [D,D][D,D] | %2
 [_G,D_G][G,DG][G,CG][G,CG] [G,DG]2 [G,D][G,D] | %3
 [D,D][D,D][D,D][D,A,D] [D,G,D][D,G,D][E,G,D][E,G,D] | [A,,A,]6 [D,F,][D,_G,D] | %5
[M:3/4] [D,A,D][D,A,D] [D,G,D][D,G,D] [D,A,D]2 |[M:1/4] [D,D][D,D] | %7
[M:4/4] [_G,D_G][G,DG][G,CG][G,CG] [G,DG]2 [G,DG][G,DG] | %8
 [E,D][E,D][E,D][E,D] [E,B,][E,B,][E,E][E,D] | [A,C]6 z2 | %10
 [D,D]2 [D,D]2[K:treble] [A,E_G]2 [A,CG]2 | [A,E_G]2 [A,CG]2[K:bass] [D,D]2 [D,D]2 | %12
 [F,A,D]2 [=E,_C=D]2 [_E,=CE] [E,A,E]2 [E,CE] | [B,,A,]2 [E,_G,]2 [A,,A,]4 | %14
 [D,A,]2 [D,D]2[K:treble] [A,E_G]2 [A,CG]2 | [A,E_G]2 [A,CG]2[K:bass] [D,D]2 [D,D]2 | %16
 [D,_C]2 [D,C]2 [_G,B,_G][K:treble] [G,B,G]2 [G,DG] |[M:9/8] [A,DF]3 [A,C_G]3[K:bass] [D,D]3 |] %18

